!!! OTL: Berkowitz160
!!! Chapter: 1
!!! Section: I
!!! Page: 36
!!! Mode: 
!!! Encoder: DJB
**kern
*staff1
*I"Piano
=1-
*clefG2
*k[b-e-a-d-]
*f:
*met(c|)
*M2/2
4f/
4a-/
2cc\
=2
4c/
4en/
4g/
4b-\
=3
4a-/
8g/L
8f/J
2g/
=4
4f/
4a-/
2cc\
=5
4b-\
4g/
4en/
4c/
=6
8dn/L
8en/
8f/
8g/J
4a-/
4g/
=7
2f/
2r
==
*-
